public/assets/icons/trash-can.svg

<svg xmlns="http://www.w3.org/2000/svg" width="24" height="24" viewBox="0 0 24 24"><path d="M3 6l3 18h12l3-18h-18zm19-4v2h-20v-2h5.711c.9 0 1.631-1.099 1.631-2h5.316c0 .901.73 2 1.631 2h5.711z"/></svg>

<svg width="24" height="24" viewBox="0 0 24 24" fill="none" xmlns="http://www.w3.org/2000/svg">
<path d="M3 6L6 24H18L21 6H3ZM22 2V4H2V2H7.711C8.611 2 9.342 0.901 9.342 0H14.658C14.658 0.901 15.388 2 16.289 2H22Z" fill="#B6B9BB"/>
</svg>
